!!!COM: Corelli, Arcangelo
!!!OTL: 
!!!ONM: Opus 6, No. 8
!!!OMV: 6
!!!CDT: 1653/2/17/-1713/1/8/
!!!OCY: Italia
**kern	**kern	**kern	**kern	**kern	**kern	**kern
*clefC	*clefG	*clefG	*clefG	*clefC	*clefG	*clefG
*k[b-]	*k[b-]	*k[b-]	*k[b-]	*k[b-]	*k[b-]	*k[b-]
*d:	*d:	*d:	*d:	*d:	*d:	*d:
*M2/2	*M2/2	*M2/2	*M2/2	*M2/2	*M2/2	*M2/2
2r	2r	2r	2r	2r	2r	2r
2r	2r	2r	2r	2r	2r	4gg
.	.	.	.	.	.	4ff#
=1	=1	=1	=1	=1	=1	=1
1r	1r	1r	1r	1r	2r	4gg
.	.	.	.	.	.	4dd
.	.	.	.	.	4gg	4bb-
.	.	.	.	.	4ff#	4aa
=2	=2	=2	=2	=2	=2	=2
2r	2r	2r	2r	2r	4gg	2bb-
.	.	.	.	.	4dd	.
4G	4d	4b-	4dd	4G	4b-	4dd
4F#	4d	4a	4dd	4F#	4a	4dd
=3	=3	=3	=3	=3	=3	=3
4G	4d	4b-	4dd	4G	4b-	4dd
4D	4d	2dd	4f#	4D	2dd	4f#
2E-	2g	.	2g	2E-	.	2g
.	.	4cc	.	.	4cc	.
=4	=4	=4	=4	=4	=4	=4
2D	2a	2dd	2f#	2D	2dd	2f#
2r	2r	2r	2r	2r	2r	4gg
.	.	.	.	.	.	4ff#
=5	=5	=5	=5	=5	=5	=5
1r	1r	1r	1r	1r	2r	4gg
.	.	.	.	.	.	4dd
.	.	.	.	.	4gg	4bb-
.	.	.	.	.	4ff#	4aa
=6	=6	=6	=6	=6	=6	=6
2r	2r	2r	2r	2r	4gg	2bb-
.	.	.	.	.	4dd	.
4G	4d	4b-	4dd	4G	4b-	4dd
4F#	4d	4a	4dd	4F#	4a	4dd
=7	=7	=7	=7	=7	=7	=7
4G	4d	4b-	4dd	4G	4b-	4dd
4D	4d	2dd	4f#	4D	2dd	4f#
2E-	2g	.	2g	2E-	.	2g
.	.	4cc	.	.	4cc	.
=8	=8	=8	=8	=8	=8	=8
2D	2a	2dd	2f#	2D	2dd	2f#
2r	2r	2r	2r	4B-	4ff	8dd
.	.	.	.	.	.	8ff
.	.	.	.	4A	4ff	8cc
.	.	.	.	.	.	8ff
=9	=9	=9	=9	=9	=9	=9
1r	1r	1r	1r	4B-	4ff	8dd
.	.	.	.	.	.	8ff
.	.	.	.	4F	4f	8cc
.	.	.	.	.	.	8ff
.	.	.	.	4B-	4ff	8dd
.	.	.	.	.	.	8ff
.	.	.	.	4A	4ff	8cc
.	.	.	.	.	.	8ff
=10	=10	=10	=10	=10	=10	=10
2r	2r	2r	2r	4B-	2ff	2dd
.	.	.	.	4BB-	.	.
4G	4g	4b	4.gg	4G	4b	4.gg
4B	4g	4dd	.	4B	4dd	.
.	.	.	8ff	.	.	8ff
=11	=11	=11	=11	=11	=11	=11
4c	4g	4g	8ee-	4c	4g	8ee-
.	.	.	8gg	.	.	8gg
4F	4a-	2cc	8ff	4F	2cc	8ff
.	.	.	8ee-	.	.	8ee-
4G	4d	.	2dd	4G	.	2dd
4GG	4g	4b	.	4GG	4b	.
=12	=12	=12	=12	=12	=12	=12
2C	2g	2cc	2cc	2C	2cc	2cc
2r	2r	2r	2r	4c	4gg	8ee-
.	.	.	.	.	.	8gg
.	.	.	.	4B	4gg	8dd
.	.	.	.	.	.	8gg
=13	=13	=13	=13	=13	=13	=13
2r	2r	2r	2r	4c	4gg	8ee-
.	.	.	.	.	.	8gg
.	.	.	.	4G	4g	8dd
.	.	.	.	.	.	8gg
4c	4g	4gg	4ee-	4c	4gg	8ee-
.	.	.	.	.	.	8gg
4B	4g	4gg	4dd	4B	4gg	8dd
.	.	.	.	.	.	8gg
=14	=14	=14	=14	=14	=14	=14
4c	4cc	4gg	4ee-	4c	2gg	4ee-
4G	4b	4g	4dd	4G	.	4dd
2r	2r	2r	2r	4d	4aa	8ff
.	.	.	.	.	.	8aa
.	.	.	.	4c#	4aa	8ee
.	.	.	.	.	.	8aa
=15	=15	=15	=15	=15	=15	=15
2r	2r	2r	2r	4d	4aa	8ff
.	.	.	.	.	.	8aa
.	.	.	.	4A	4a	8ee
.	.	.	.	.	.	8aa
4d	4a	4aa	4ff	4d	4aa	8ff
.	.	.	.	.	.	8aa
4c#	4a	4aa	4ee	4c#	4aa	8ee
.	.	.	.	.	.	8aa
=16	=16	=16	=16	=16	=16	=16
4d	4dd	4aa	4ff	4d	2aa	4ff
4A	4cc#	4a	4ee	4A	.	4ee
2r	2r	2r	2r	4d	4ff	4bb-
.	.	.	.	4c#	4ee	4aa
=17	=17	=17	=17	=17	=17	=17
4d	4dd	4ff	4bb-	4d	4ff	4bb-
4c	4a	4ee	4aa	4c	4ee	4aa
2r	2r	2r	2r	4B-	4dd	4gg
.	.	.	.	4A	4cc	4ff
=18	=18	=18	=18	=18	=18	=18
4B-	4b-	4dd	4gg	4B-	4dd	4gg
4A	4f	4cc	4ff	4A	4cc	4ff
2r	2r	2r	2r	4G	4b-	4ee
.	.	.	.	4F	4a	4dd
=19	=19	=19	=19	=19	=19	=19
4E	4e	4g	4cc#	4E	4g	4cc#
4D	8f	4f	2dd	4D	4f	2dd
.	8g	.	.	.	.	.
4A	4.a	2e	.	4A	2e	.
4AA	.	.	4cc#	4AA	.	4cc#
.	8a	.	.	.	.	.
=20	=20	=20	=20	=20	=20	=20
2D	2a	2d	2dd	2D	2d	2dd
2r	2r	2r	2r	4d	4ff	4bb-
.	.	.	.	4c#	4ee	4aa
=21	=21	=21	=21	=21	=21	=21
4d	4dd	4ff	4bb-	4d	4ff	4bb-
4c	4a	4ee	4aa	4c	4ee	4aa
2r	2r	2r	2r	4B-	4dd	4gg
.	.	.	.	4A	4cc	4ff
=22	=22	=22	=22	=22	=22	=22
4B-	4b-	4dd	4gg	4B-	4dd	4gg
4A	4f	4cc	4ff	4A	4cc	4ff
2r	2r	2r	2r	4G	4b-	4ee
.	.	.	.	4F	4a	4dd
=23	=23	=23	=23	=23	=23	=23
4E	4e	4g	4cc#	4E	4g	4cc#
4D	8f	4f	2dd	4D	4f	2dd
.	8g	.	.	.	.	.
4A	4.a	2e	.	4A	2e	.
4AA	.	.	4cc#	4AA	.	4cc#
.	8a	.	.	.	.	.
=24	=24	=24	=24	=24	=24	=24
2D	2a	2d	2dd	2D	2d	2dd
2r	2r	2r	2r	2r	4ff#	4aa
.	.	.	.	.	4gg	4bb-
=25	=25	=25	=25	=25	=25	=25
1r	1r	1r	1r	4d	4ff#	4aa
.	.	.	.	4D	4gg	4bb-
.	.	.	.	2r	4ff#	4aa
.	.	.	.	.	4gg	4bb-
=26	=26	=26	=26	=26	=26	=26
1r	1r	2r	2r	4d	2ff#	4aa
.	.	.	.	4D	.	4dd
.	.	4dd	4ff	2r	4dd	4ff
.	.	4ee-	4gg	.	4ee-	4gg
=27	=27	=27	=27	=27	=27	=27
4B-	2b-	4dd	4ff	4B-	4dd	4ff
4BB-	.	4ee-	4gg	4BB-	4ee-	4gg
2r	2r	4dd	4ff	2r	4dd	4ff
.	.	4ee-	4gg	.	4ee-	4gg
=28	=28	=28	=28	=28	=28	=28
4B-	2b-	2dd	4ff	4B-	2dd	4ff
4BB-	.	.	4b-	4BB-	.	4b-
2r	2r	2r	2r	4B-	4dd	4ff
.	.	.	.	4BB-	4dd	4ff
=29	=29	=29	=29	=29	=29	=29
1r	1r	1r	1r	4E-	4ee-	4gg
.	.	.	.	4BB-	4dd	4ff
.	.	.	.	4E-	4cc	4ee-
.	.	.	.	4BB-	4b-	4dd
=30	=30	=30	=30	=30	=30	=30
2r	2r	2r	2r	4F	2a	4cc
.	.	.	.	4FF	.	4f
4d	4d	4b-	4ff	4d	4b-	4ff
4D	4B-	4f	4b-	4D	4f	4b-
=31	=31	=31	=31	=31	=31	=31
4E-	4e-	4g	4cc	4E-	4g	4cc
4D	4B-	4f	4b-	4D	4f	4b-
2r	2r	2r	2r	4d	4b-	4ff
.	.	.	.	4D	4f	4b-
=32	=32	=32	=32	=32	=32	=32
2r	2r	2r	2r	4E-	4g	4cc
.	.	.	.	4D	4f	4b-
4E-	4g	4g	4cc	4E-	4g	4cc
4F	4f	4a	4dd	4F	4a	4dd
=33	=33	=33	=33	=33	=33	=33
4G	4e-	4b-	4ee-	4G	4b-	4ee-
4F	4f	4a	4dd	4F	4a	4dd
2r	2r	2r	2r	4E-	4g	4cc
.	.	.	.	4F	4a	4dd
=34	=34	=34	=34	=34	=34	=34
2r	2r	2r	2r	4G	4b-	4ee-
.	.	.	.	4F	4a	4dd
4B-	4B-	4dd	4ff	4B-	4dd	4ff
4E-	4B-	8cc	8ee-	4E-	8cc	8ee-
.	.	8b-	8dd	.	8b-	8dd
=35	=35	=35	=35	=35	=35	=35
4F	4f	4a	4cc	4F	4a	4cc
4BB-	4f	2b-	4dd	4BB-	2b-	4dd
4F	2f	.	2cc	4F	.	2cc
4FF	.	4a	.	4FF	4a	.
=36	=36	=36	=36	=36	=36	=36
2BB-	2f	2b-	2b-	2BB-	2b-	8b-
.	.	.	.	.	.	8cc
.	.	.	.	.	.	8b-
.	.	.	.	.	.	8cc
2r	2r	2r	2r	2r	2r	8dd-
.	.	.	.	.	.	8cc
.	.	.	.	.	.	8dd-
.	.	.	.	.	.	8cc
=37	=37	=37	=37	=37	=37	=37
2D-	2f	2f	2b-	2D-	2f	8b-
.	.	.	.	.	.	8cc
.	.	.	.	.	.	8b-
.	.	.	.	.	.	8cc
2r	2r	2r	2r	2r	2r	8dd-
.	.	.	.	.	.	8cc
.	.	.	.	.	.	8dd-
.	.	.	.	.	.	8cc
=38	=38	=38	=38	=38	=38	=38
2E-	2e-	2g-	2b-	2E-	2g-	8b-
.	.	.	.	.	.	8cc
.	.	.	.	.	.	8b-
.	.	.	.	.	.	8cc
2r	2r	2r	2r	2r	2r	8dd-
.	.	.	.	.	.	8cc
.	.	.	.	.	.	8b-
.	.	.	.	.	.	8cc
=39	=39	=39	=39	=39	=39	=39
4F	4f	4cc	4a	4F	4cc	4a
4BB-	4f	4dd-	2b-	4BB-	4dd-	2b-
4F	2f	2cc	.	4F	2cc	.
4FF	.	.	4a	4FF	.	4a
=40	=40	=40	=40	=40	=40	=40
2BB-	2f	2b-	2b-	2BB-	2b-	8b-
.	.	.	.	.	.	8cc
.	.	.	.	.	.	8b-
.	.	.	.	.	.	8cc
2r	2r	2r	2r	2r	2r	8dd-
.	.	.	.	.	.	8cc
.	.	.	.	.	.	8dd-
.	.	.	.	.	.	8cc
=41	=41	=41	=41	=41	=41	=41
2G	2g	2dd	2b	2G	2dd	8b
.	.	.	.	.	.	8cc
.	.	.	.	.	.	8b
.	.	.	.	.	.	8cc
2r	2r	2r	2r	2r	2r	8dd
.	.	.	.	.	.	8cc
.	.	.	.	.	.	8dd
.	.	.	.	.	.	8cc
=42	=42	=42	=42	=42	=42	=42
4G	4g	4dd	4b	4G	4dd	4b
4C	4g	4ee-	2cc	4C	4ee-	2cc
4G	2g	2dd	.	4G	2dd	.
4GG	.	.	4b	4GG	.	4b
=43	=43	=43	=43	=43	=43	=43
2C	2g	2cc	2cc	2C	2cc	8cc
.	.	.	.	.	.	8dd
.	.	.	.	.	.	8cc
.	.	.	.	.	.	8dd
2r	2r	2r	2r	2r	2r	8ee-
.	.	.	.	.	.	8dd
.	.	.	.	.	.	8ee-
.	.	.	.	.	.	8dd
=44	=44	=44	=44	=44	=44	=44
2A	2a	2ee	2cc#	2A	2ee	8cc#
.	.	.	.	.	.	8dd
.	.	.	.	.	.	8cc#
.	.	.	.	.	.	8dd
2r	2r	2r	2r	2r	2r	8ee
.	.	.	.	.	.	8dd
.	.	.	.	.	.	8ee
.	.	.	.	.	.	8dd
=45	=45	=45	=45	=45	=45	=45
4A	4a	4ee	4cc#	4A	4ee	4cc#
4D	4a	4ff	2dd	4D	4ff	2dd
4A	2a	2ee	.	4A	2ee	.
4AA	.	.	4cc#	4AA	.	4cc#
=46	=46	=46	=46	=46	=46	=46
2D	2a	2dd	2dd	2D	2dd	2dd
2r	2r	2r	2r	2r	2r	4gg
.	.	.	.	.	.	4ff#
=47	=47	=47	=47	=47	=47	=47
1r	1r	1r	1r	1r	2r	4gg
.	.	.	.	.	.	4dd
.	.	.	.	.	4gg	4bb-
.	.	.	.	.	4ff#	4aa
=48	=48	=48	=48	=48	=48	=48
2r	2r	2r	2r	2r	4gg	2bb-
.	.	.	.	.	4dd	.
4G	4d	4b-	4dd	4G	4b-	4dd
4F#	4d	4a	4dd	4F#	4a	4dd
=49	=49	=49	=49	=49	=49	=49
4G	4d	4b-	4dd	4G	4b-	4dd
4D	4d	2dd	4f#	4D	2dd	4f#
2E-	2g	.	2g	2E-	.	2g
.	.	4cc	.	.	4cc	.
=50	=50	=50	=50	=50	=50	=50
2D	2a	2dd	2f#	2D	2dd	2f#
2r	2r	2r	2r	4d	4dd	4ff
.	.	.	.	4D	4dd	4ff
=51	=51	=51	=51	=51	=51	=51
1r	1r	1r	1r	4E	4dd	4gg
.	.	.	.	4c	8cc	4gg
.	.	.	.	.	8b-	.
.	.	.	.	4F#	4cc	4aa
.	.	.	.	4d	4cc	4aa
=52	=52	=52	=52	=52	=52	=52
2r	2r	2r	2r	4G	4cc	4aa
.	.	.	.	4A	4b-	4dd
4B-	4g	4dd	4gg	4B-	4dd	4gg
4BB-	4g	4dd	4ff	4BB-	4dd	4ff
=53	=53	=53	=53	=53	=53	=53
2.C	4g	4cc	4ee-	2.C	4cc	4ee-
.	4g	4b-	4dd	.	4b-	4dd
.	2e-	4a	4cc	.	4a	4cc
4C	.	4g	4b-	4C	4g	4b-
=54	=54	=54	=54	=54	=54	=54
2D	2A	2f#	2a	2D	2f#	4a
.	.	.	.	.	.	4dd
2r	2r	2r	2r	2B-	4r	[2gg
.	.	.	.	.	4dd	.
=55	=55	=55	=55	=55	=55	=55
1r	1r	1r	1r	2c	2.gg	4gg]
.	.	.	.	.	.	4dd
.	.	.	.	2d	.	[2gg
.	.	.	.	.	4dd	.
=56	=56	=56	=56	=56	=56	=56
2r	2r	2.r	4r	2e-	2.gg	4gg]
.	.	.	4dd	.	.	4dd
2BB-	2dd	.	[2gg	2BB-	.	[2gg
.	.	4dd	.	.	4dd	.
=57	=57	=57	=57	=57	=57	=57
2C	2ee-	2.gg	4gg]	2C	2.gg	4gg]
.	.	.	4dd	.	.	4dd
2D	2f#	.	[2gg	2D	.	[2gg
.	.	4dd	.	.	4dd	.
=58	=58	=58	=58	=58	=58	=58
2E-	2g	2gg	4gg]	2E-	2gg	4gg]
.	.	.	4dd	.	.	4dd
2BB-	2d	4r	4gg	2BB-	4r	4gg
.	.	4ddd	4dd	.	4ddd	4dd
=59	=59	=59	=59	=59	=59	=59
2C	4e-	4aa	4ff#	2C	4aa	4ff#
.	4g	4bb-	2gg	.	4bb-	2gg
2D	2d	2aa	.	2D	2aa	.
.	.	.	4ff#	.	.	4ff#
=60	=60	=60	=60	=60	=60	=60
4G	2d	2gg	2gg	4G	2gg	2gg
4F	.	.	.	4F	.	.
4E-	2r	2r	2g	4E-	2r	2g
4D	.	.	.	4D	.	.
=61	=61	=61	=61	=61	=61	=61
4E-	4g	2g	2r	4E-	2g	2r
4D	4f	.	.	4D	.	.
4C	4e-	2r	2g	4C	2r	2g
4BB	4d	.	.	4BB	.	.
=62	=62	=62	=62	=62	=62	=62
4C	2e-	2g	2r	4C	2g	2r
4G	.	.	.	4G	.	.
4BB	2d	2r	2g	4BB	2r	2g
4G	.	.	.	4G	.	.
=63	=63	=63	=63	=63	=63	=63
4C	2e-	2g	2r	4C	2g	2r
4G	.	.	.	4G	.	.
4BB	2d	2r	2g	4BB	2r	2g
4G	.	.	.	4G	.	.
=64	=64	=64	=64	=64	=64	=64
4C	4e-	2g	2r	4C	2g	2r
4D	4f#	.	.	4D	.	.
4E-	4g	4r	4g	4E-	4r	4g
4C	4e-	[4cc	4ee-	4C	[4cc	4ee-
=65	=65	=65	=65	=65	=65	=65
4D	4A	4cc]	4f#	4D	4cc]	4f#
4GG	8B-	4b-	2g	4GG	4b-	2g
.	8c	.	.	.	.	.
4D	4.d	2a	.	4D	2a	.
4D	.	.	4f#	4D	.	4f#
.	8d	.	.	.	.	.
=66	=66	=66	=66	=66	=66	=66
2G	2d	2g	2g	2G	2g	2g
4r	4r	4r	4r	4r	4r	4r
4C	4e-	[4cc	4ee-	4C	[4cc	4ee-
=67	=67	=67	=67	=67	=67	=67
4D	4A	4cc]	4f#	4D	4cc]	4f#
4GG	8B-	4b-	2g	4GG	4b-	2g
.	8c	.	.	.	.	.
4D	4.d	2a	.	4D	2a	.
4DD	.	.	4f#	4DD	.	4f#
.	8d	.	.	.	.	.
=68	=68	=68	=68	=68	=68	=68
2.GG	2.d	2.g	2.g	2.GG	2.g	2.g
4r	4r	4r	4r	4r	4r	4r
==	==	==	==	==	==	==
*-	*-	*-	*-	*-	*-	*-
!!!RWG: This file only contains pitch and duration data.
!!!RWG: Transposing instruments are not transposed.
!!!RWG: Durations of rests and tied notes may be interpreted.
!!!RWG: Key is interpreted using the Humdrum key tool.
!!!SCA: 
!!!YOR: Chrysander Edition
!!!AGN: concerto grosso
!!!AFT: stage1
!!!ENC: F. Bennion
!!!END: 1997/04/15
!!!AST: baroque
!!!YEC: Copyright 1994, Center for Computer Assisted Research in the Humanities
!!!YEM: Rights to all derivative electronic formats reserved.
!!!YEM: Refer to licensing agreement for further details.
!!!YEN: United States of America
!!!EED: W.B. Hewlett
!!!KEY: 3903748606
!!!EMD: Converted from MuseData to Humdrum Aug 9, 1999, by Bret Aarden using muse2kern.
!!!VTS: 1475100901
